wireguard.svg

<svg viewBox="0 0 68.04 68.04" xmlns="http://www.w3.org/2000/svg"><path d="M67.99 33.0221C67.99 33.0221 69.564 0.00907351 33.2788 0.00907351C1.18955 0.00907351 0.187011 31.6772 0.187011 31.6772C0.187011 31.6772-4.53316 68.0491 34.0182 68.0491C70.993 68.0491 67.99 33.0221 67.99 33.0221ZM23.1267 21.4864C29.9349 17.3214 38.6329 19.867 41.8919 26.1303C42.5096 27.3174 42.5881 29.1447 42.1969 30.3901C40.8464 34.6893 37.6575 37.1004 33.2805 38.1247C34.5709 37.02 35.5981 35.7673 35.9249 34.0366C36.2693 32.3779 35.8949 30.651 34.8946 29.2838C33.301 27.0946 30.45 26.2259 27.9063 27.1543C25.2116 28.1774 23.7355 30.6366 24.0015 33.6596C24.2487 36.4676 26.3794 38.2875 30.3661 38.9787C29.7703 39.2941 29.3114 39.5263 28.8624 39.7764C27.0361 40.777 25.4469 42.1591 24.2027 43.8289C23.7981 44.3751 23.5199 44.4191 22.9038 44.0424C14.8887 39.1412 14.3736 26.841 23.1266 21.4864L23.1267 21.4864ZM17.1277 51.771C15.8402 52.0978 14.5924 52.5816 13.2763 53.0133C13.9201 48.6698 19.0066 44.6698 23.3081 45.1261C22.0619 46.8427 21.3344 48.8809 21.2119 50.9986C19.7826 51.2618 18.4355 51.4389 17.1277 51.7709L17.1277 51.771ZM44.5243 9.36392C45.7967 9.41067 47.0714 9.39134 48.3447 9.42148C48.6625 9.44247 48.9784 9.48649 49.2899 9.55318C49.0052 9.9904 48.6838 10.4026 48.3292 10.7854C47.874 11.2096 47.3597 11.6243 46.7039 10.9796C46.5461 10.8245 46.1734 10.8601 45.899 10.8565C44.6328 10.8398 43.365 10.7994 42.1008 10.8471C41.0038 10.8822 39.9105 10.9939 38.829 11.1812C38.6263 11.2176 38.3233 11.8914 38.4164 12.1399C38.6363 12.7262 38.957 13.3728 39.4321 13.7478C41.1877 15.1336 43.0547 16.3778 44.8184 17.754C46.5322 19.0914 48.1273 20.5568 49.0995 22.5742C50.366 25.2028 50.4029 27.9591 49.8567 30.7277C48.9449 35.3494 46.6059 39.1784 42.8183 41.9597C41.2922 43.0803 39.4025 43.7163 37.6545 44.5214C36.1172 45.2296 34.5347 45.8394 32.9938 46.5401C30.2155 47.8032 28.6542 50.8187 29.1135 53.9537C29.535 56.8307 32.0591 59.2316 34.9505 59.7271C38.4189 60.3217 41.9977 58.0678 42.8462 54.5425C43.8004 50.5785 41.6464 47.0393 37.6148 45.9665C37.4373 45.9193 37.2591 45.8745 36.8887 45.779C37.9672 45.2971 38.8986 44.9538 39.7586 44.4807C41.2588 43.6552 42.7316 42.7811 44.1771 41.8584C44.6022 41.5865 44.8319 41.5863 45.1944 41.8997C47.9672 44.297 49.6213 47.279 50.0851 50.9352C50.8528 56.9871 47.9878 62.5469 42.584 65.3964C34.2238 69.8052 23.9934 64.7872 22.1469 55.5189C20.5652 47.5802 26.1683 40.3791 32.9118 38.9888C35.812 38.3908 38.4641 37.1835 40.5259 34.9501C41.8561 33.509 42.501 32.2725 42.7208 31.7146C43.13 30.669 43.3393 29.5559 43.3379 28.433C43.2938 27.4616 43.0655 26.5074 42.6653 25.6212C41.9613 24.0166 39.2643 21.4639 38.5966 20.9255L32.2458 15.9538C32.0219 15.7695 31.7697 15.7829 31.2234 15.8199C30.5745 15.8639 28.9156 15.9557 28.1998 15.7682C28.7788 15.33 30.3575 14.692 31.0354 14.179C28.9774 12.7888 26.6284 13.2909 24.4712 12.8758C24.97 11.9468 27.4381 10.5193 28.8419 10.3603C28.7587 9.57645 28.6309 8.79795 28.4591 8.0286C28.3734 7.71296 28.0211 7.40699 27.7137 7.22675C26.9684 6.78977 26.1783 6.42916 25.3211 5.99461C26.0886 5.4986 26.9778 5.22352 27.8913 5.19956C28.7567 5.16665 29.6225 5.251 30.4652 5.45031C31.9944 5.79969 33.215 5.57163 34.4317 4.53222C33.4741 4.14661 32.5166 3.79433 31.5879 3.37765C30.6728 2.96056 29.781 2.49431 28.9163 1.98095C31.3255 2.31559 33.6557 3.21894 36.1191 2.88892C36.1401 2.77696 36.1611 2.665 36.1821 2.55305C34.3405 2.12442 32.4989 1.69579 30.4598 1.22119C33.8711 0.908904 37.0469 0.857403 40.0542 2.3221C40.9004 2.73426 41.7858 3.07541 42.5969 3.54618C42.9926 3.77579 43.2589 4.22835 43.5835 4.58025C43.8413 4.85978 44.0483 5.23428 44.3651 5.40272C45.5672 6.04194 46.8904 6.06704 48.2386 6.03502C48.2486 5.88149 48.2581 5.7376 48.2682 5.58294C49.625 6.0069 51.1521 7.5715 51.1496 8.71414C48.9516 8.71414 46.7554 8.70574 44.5594 8.72637C44.3247 8.7286 44.0916 8.90001 43.8577 8.99295C44.08 9.12238 44.2984 9.35569 44.5251 9.36404L44.5243 9.36392Z" fill="#88171a"/><path d="M41.6889 6.11171C41.599 6.16808 41.5409 6.26368 41.5325 6.36952C41.524 6.47536 41.5661 6.57896 41.646 6.64891C41.713 6.76679 41.8244 6.85289 41.9554 6.88792C42.0864 6.92296 42.2259 6.90401 42.3428 6.83532C42.5544 6.7286 42.7619 6.61501 43.0176 6.48003C42.8117 6.30426 42.6465 6.15916 42.4765 6.01908C42.1776 5.77278 41.9297 5.92748 41.6889 6.11171Z" fill="#000000"/></svg>

<svg viewBox="0 0 68.04 68.04" xmlns="http://www.w3.org/2000/svg"><path d="M67.99 33.022S69.564.01 33.279.01C1.189.01.187 31.677.187 31.677S-4.533 68.05 34.018 68.05c36.975 0 33.972-35.027 33.972-35.027ZM23.127 21.486c6.808-4.165 15.506-1.619 18.765 4.644.618 1.187.696 3.015.305 4.26-1.35 4.3-4.54 6.71-8.916 7.735 1.29-1.105 2.317-2.358 2.644-4.088a5.988 5.988 0 0 0-1.03-4.753 6.07 6.07 0 0 0-6.989-2.13c-2.694 1.023-4.17 3.483-3.904 6.506.247 2.808 2.377 4.628 6.364 5.319-.596.315-1.055.547-1.504.797a14.499 14.499 0 0 0-4.66 4.053c-.404.546-.682.59-1.298.213-8.015-4.9-8.53-17.201.223-22.556Zm-6 30.285c-1.287.327-2.535.81-3.85 1.242.643-4.343 5.73-8.343 10.031-7.887A11.086 11.086 0 0 0 21.212 51c-1.43.263-2.776.44-4.084.772ZM44.525 9.364c1.273.047 2.547.027 3.82.057.319.021.634.065.946.132-.285.437-.606.85-.96 1.232-.456.425-.97.84-1.626.195-.158-.155-.53-.12-.805-.123-1.266-.017-2.534-.058-3.798-.01-1.097.035-2.19.147-3.272.334-.203.037-.506.71-.413.959.22.586.541 1.233 1.016 1.608 1.756 1.386 3.623 2.63 5.386 4.006 1.714 1.337 3.31 2.803 4.282 4.82 1.266 2.629 1.303 5.385.757 8.154-.912 4.621-3.251 8.45-7.039 11.232-1.526 1.12-3.415 1.756-5.163 2.561-1.538.709-3.12 1.318-4.661 2.02-2.779 1.262-4.34 4.278-3.88 7.413.421 2.877 2.945 5.278 5.836 5.773 3.469.595 7.048-1.66 7.896-5.184.954-3.965-1.2-7.504-5.231-8.576-.178-.048-.356-.093-.726-.188 1.078-.482 2.01-.825 2.87-1.298a78.94 78.94 0 0 0 4.418-2.623c.425-.271.655-.272 1.017.042 2.773 2.397 4.427 5.379 4.891 9.035.768 6.052-2.097 11.612-7.501 14.461-8.36 4.41-18.59-.609-20.437-9.877-1.582-7.939 4.021-15.14 10.765-16.53 2.9-.598 5.552-1.805 7.614-4.039 1.33-1.441 1.975-2.678 2.195-3.235a8.974 8.974 0 0 0 .617-3.282 7.678 7.678 0 0 0-.673-2.812c-.704-1.604-3.4-4.157-4.068-4.695l-6.351-4.972c-.224-.184-.476-.171-1.023-.134-.648.044-2.307.136-3.023-.052.579-.438 2.158-1.076 2.835-1.589-2.058-1.39-4.407-.888-6.564-1.303.499-.93 2.967-2.357 4.37-2.516a20.747 20.747 0 0 0-.382-2.331c-.086-.316-.438-.622-.745-.802-.746-.437-1.536-.798-2.393-1.232a4.975 4.975 0 0 1 2.57-.795 9.598 9.598 0 0 1 2.574.25c1.53.35 2.75.122 3.967-.918-.958-.385-1.915-.738-2.844-1.154a27.899 27.899 0 0 1-2.672-1.397c2.41.335 4.74 1.238 7.203.908l.063-.336-5.722-1.332C33.87.91 37.047.857 40.054 2.322c.846.412 1.732.753 2.543 1.224.396.23.662.682.986 1.034.258.28.465.654.782.823 1.202.639 2.525.664 3.874.632l.03-.452c1.356.424 2.883 1.989 2.88 3.131-2.197 0-4.394-.008-6.59.012-.234.003-.467.174-.701.267.222.13.44.363.667.371Z" fill="#88171a"/><path d="M41.689 6.112a.336.336 0 0 0-.043.537.506.506 0 0 0 .697.186c.211-.106.419-.22.675-.355-.206-.176-.371-.32-.541-.46-.3-.247-.547-.093-.788.092Z"/></svg>
